src/main/resources/icons/UIDesignerIcons/com/intellij/uiDesigner/icons/collapseNode_dark.svg

<svg xmlns="http://www.w3.org/2000/svg" width="9" height="9" viewBox="0 0 9 9"><rect id="frame" width="9" height="9" fill="none"/><path fill="#AFB1B3" fill-rule="evenodd" d="M0 0h9v9H0V0zm1 1v7h7V1H1zm1 3h5v1H2V4z"/></svg>

<svg xmlns="http://www.w3.org/2000/svg" width="9" height="9" viewBox="0 0 9 9">
  <path fill="#AFB1B3" fill-rule="evenodd" d="M0,0 L9,0 L9,9 L0,9 L0,0 Z M1,1 L1,8 L8,8 L8,1 L1,1 Z M2,4 L7,4 L7,5 L2,5 L2,4 Z"/>
</svg>
